img/spring-logo.svg

<svg width="30" height="31" viewBox="0 0 30 31" fill="none" xmlns="http://www.w3.org/2000/svg">
<g clip-path="url(#clip0_85_9917)">
<path fill-rule="evenodd" clip-rule="evenodd" d="M5.12431 26.7434C5.67369 27.1869 6.47994 27.1044 6.92244 26.5541C7.36775 26.0056 7.28431 25.1994 6.73494 24.7541C6.1865 24.3097 5.38119 24.395 4.93494 24.9434C4.51306 25.4638 4.56744 26.2147 5.04275 26.6722L4.79338 26.4528C1.84869 23.7144 -6.10352e-05 19.8097 -6.10352e-05 15.4794C-6.10352e-05 7.22 6.71994 0.5 14.9812 0.5C19.1812 0.5 22.9781 2.24094 25.7015 5.03375C26.3203 4.19187 26.8565 3.25063 27.2953 2.20719C29.204 7.94281 30.3262 12.7634 29.9156 16.5603C29.3606 24.3172 22.8768 30.4634 14.9812 30.4634C11.3137 30.4634 7.95369 29.1359 5.34744 26.9412L5.12431 26.7434ZM27.2306 22.0728C30.9899 17.0703 28.8946 8.98063 27.1509 3.81031C25.5974 7.0475 21.7715 9.52344 18.4678 10.3072C15.3712 11.0459 12.6309 10.4403 9.76494 11.5428C3.23056 14.0553 3.33369 21.8478 6.93369 23.5991C6.93556 23.5991 7.14931 23.7153 7.1465 23.7116C7.1465 23.7097 12.4378 22.6597 15.3628 21.5797C19.6378 20.0009 24.3309 16.1094 25.8749 11.5887C25.0528 16.2903 21.0168 20.8138 16.9621 22.8913C14.804 23.9994 13.1259 24.2459 9.57463 25.475C9.13963 25.6231 8.79838 25.7694 8.79838 25.7694C9.69838 25.6194 10.5956 25.5706 10.5956 25.5706C15.6515 25.3316 23.5396 26.9919 27.2315 22.0737L27.2306 22.0728Z" fill="#70AD51"/>
</g>
<defs>
<clipPath id="clip0_85_9917">
<rect width="30" height="30" fill="white" transform="translate(-6.10352e-05 0.5)"/>
</clipPath>
</defs>
</svg>

<svg xmlns="http://www.w3.org/2000/svg" width="30" height="31" fill="none"><g clip-path="url(#a)"><path fill="#70AD51" fill-rule="evenodd" d="M5.124 26.743a1.28 1.28 0 1 0-.082-.071l-.249-.22C1.85 23.715 0 19.81 0 15.48 0 7.22 6.72.5 14.98.5c4.2 0 7.997 1.74 10.72 4.534a13.764 13.764 0 0 0 1.594-2.827c1.909 5.736 3.031 10.556 2.62 14.353-.554 7.757-7.038 13.903-14.934 13.903a14.91 14.91 0 0 1-9.634-3.522l-.223-.198Zm22.107-4.67C30.99 17.07 28.895 8.98 27.15 3.81c-1.554 3.238-5.38 5.713-8.683 6.497-3.097.739-5.837.133-8.703 1.236-6.534 2.512-6.431 10.305-2.831 12.056.002 0 .215.116.212.113 0-.002 5.292-1.052 8.217-2.132 4.275-1.58 8.968-5.47 10.512-9.991-.822 4.701-4.858 9.225-8.913 11.302-2.158 1.108-3.836 1.355-7.387 2.584-.435.148-.777.294-.777.294.9-.15 1.798-.198 1.798-.198 5.056-.24 12.944 1.42 16.636-3.497l-.001-.001Z" clip-rule="evenodd"/></g><defs><clipPath id="a"><path fill="#fff" d="M0 .5h30v30H0z"/></clipPath></defs></svg>
